X:339
T: Eng ongeheiesch Freiesch (78a), S. 215
N: T0228
O: Luxemburg
S: Singendes Volk, Esch-Alzette 1937 posth.]
N: Junglinster, um 1890
R: Liebeslieder]
M: 6/8
L: 1/16
K: G
D2 | GGG2G2B2A2G2 | A8z2
D2 | GGG2G2B2A2G2 | A8z2
D2 | AAA2A2c2B2A2 | B8z2
D2 | c2ccc2c2B2
A2 | B2B2BBB2G2
G2 | A4A2F2E2F2 | G8z2

@@@ Tune index: 8393
